packages/icons/src/emoji/svg/building.svg

<svg width="120" height="120" viewBox="0 0 120 120" fill="none" xmlns="http://www.w3.org/2000/svg">
<path d="M20.1377 12.2158H101.456V120H20.1377V12.2158Z" fill="#006CA2"/>
<path d="M18.0938 16.2188H103.603V91.0969H18.0938V16.2188Z" fill="#006CA2"/>
<path d="M99.2154 2.60645H20.7748C16.0123 2.60645 12.1123 6.49707 12.1123 11.2689V120H45.4873V107.475C45.4873 104.822 47.6529 102.647 50.3061 102.647H69.6748C72.3373 102.647 74.5123 104.822 74.5123 107.475V120H107.887V11.2689C107.878 6.50645 103.987 2.60645 99.2154 2.60645ZM35.7654 82.6689H23.5779V67.9502H35.7654V82.6689ZM35.7654 59.2689H23.5779V44.5502H35.7654V59.2689ZM35.7654 35.8783H23.5779V21.1596H35.7654V35.8783ZM56.1936 82.6689H43.9967V67.9502H56.1936V82.6689ZM56.1936 59.2689H43.9967V44.5502H56.1936V59.2689ZM56.1936 35.8783H43.9967V21.1596H56.1936V35.8783ZM76.6123 82.6689H64.4248V67.9502H76.6123V82.6689ZM76.6123 59.2689H64.4248V44.5502H76.6123V59.2689ZM76.6123 35.8783H64.4248V21.1596H76.6123V35.8783ZM97.0404 82.6689H84.8436V67.9502H97.0404V82.6689ZM97.0404 59.2689H84.8436V44.5502H97.0404V59.2689ZM97.0404 35.8783H84.8436V21.1596H97.0404V35.8783Z" fill="#78A3AD"/>
</svg>

<svg xmlns="http://www.w3.org/2000/svg" fill="none" aria-hidden="true" data-slot="icon" viewBox="0 0 120 120"><path fill="#006CA2" d="M20.138 12.216h81.318V120H20.138z"/><path fill="#006CA2" d="M18.094 16.219h85.509v74.878h-85.51z"/><path fill="#78A3AD" d="M99.215 2.606h-78.44c-4.763 0-8.663 3.891-8.663 8.663V120h33.375v-12.525c0-2.653 2.166-4.828 4.82-4.828h19.368c2.662 0 4.837 2.175 4.837 4.828V120h33.375V11.269c-.009-4.763-3.9-8.663-8.672-8.663M35.765 82.67H23.578V67.95h12.187zm0-23.4H23.578V44.55h12.187zm0-23.39H23.578V21.16h12.187zm20.429 46.79H43.997V67.95h12.197zm0-23.4H43.997V44.55h12.197zm0-23.39H43.997V21.16h12.197zm20.418 46.79H64.425V67.95h12.187zm0-23.4H64.425V44.55h12.187zm0-23.39H64.425V21.16h12.187zM97.04 82.67H84.844V67.95H97.04zm0-23.4H84.844V44.55H97.04zm0-23.39H84.844V21.16H97.04z"/></svg>
